X:1
T:Angmering, CM
T:Angmering, CM
T:Charles Hubert Hastings Parry, 1902
T:Public Domain Courtesy of the Cyber Hymnal™
C:Charles Hubert Hastings Parry, 1902
Z:Public Domain
Z:Courtesy of the Cyber Hymnal™
%%score ( 1 2 ) ( 3 4 )
L:1/8
Q:1/4=112
M:4/4
K:E
V:1 treble 
V:2 treble 
V:3 bass 
V:4 bass 
V:1
 [EG]2 | E2 [EG]2 [Gc]2 [FB]2 | [FA]2 G2 [DF]2 [EG]2 | [E^A]2 [FB]2 [Gc]2 ([Fd][Ec]) | %4
 [DB]6 [FB]2 | [EG]2 [FB]2 [Ee]2 [Fd]2 | [Gc]2 [Fc]2 [FB]2 [Cc]2 | [CA]2 [^EG]2 A2 [DF]2 | E6 |] %9
V:2
 x2 | E2 x6 | x2 (B,C) x4 | x8 | x8 | x8 | x8 | x4 (F=E) x2 | E6 |] %9
V:3
 [E,B,]2 | [G,B,]2 [E,B,]2 [C,E]2 D2 | (CD) E2 B,2 [E,B,]2 | [C,C]2 [D,B,]2 [E,B,]2 [F,^A,]2 | %4
 [B,,B,]6 [B,D]2 | [CE]2 ([B,D][A,C]) [G,B,]2 [F,B,]2 | [E,B,]2 A,2 [D,B,]2 [^E,G,]2 | %7
 [F,A,]2 [C,C]2 [A,,C]2 (B,A,) | [E,G,]6 |] %9
V:4
 x2 | x6 (D,E,) | F,2 (G,A,) B,2 x2 | x8 | x8 | x8 | x2 (F,^E,) x4 | x6 B,,2 | x6 |] %9

